!!!COM: Palestrina, Giovanni Perluigi da
!!!OPR: Missa De beata virgine (1567)
!!!OTL: Agnus II
**kern	**kern	**kern	**kern	**kern
*Ibass	*Itenor	*Itenor	*Icalto	*Icant
!Bassus	!Tenor 2	!Tenor 1	!Altus	!Cantus
*clefF4	*clefGv2	*clefGv2	*clefG2	*clefG2
*k[b-]	*k[b-]	*k[b-]	*k[b-]	*k[b-]
*?:X	*?:X	*?:X	*?:X	*?:X
*M4/2	*M4/2	*M4/2	*M4/2	*M4/2
=1	=1	=1	=1	=1
0r	0r	1f	0r	0f
.	.	2d	.	.
.	.	[2f	.	.
=2	=2	=2	=2	=2
0r	0r	4f]	0r	1a
.	.	4e	.	.
.	.	4d	.	.
.	.	4c	.	.
.	.	1d	.	1b-
=3	=3	=3	=3	=3
1F	0F	2c	0r	2cc
.	.	2.f	.	2cc
2D	.	.	.	2dd
.	.	4g	.	.
[2F	.	[2a	.	2cc
=4	=4	=4	=4	=4
4F]	1A	2a]	0r	0ff
4E	.	.	.	.
4D	.	1f	.	.
4C	.	.	.	.
1D	1B-	.	.	.
.	.	4e	.	.
.	.	4d	.	.
=5	=5	=5	=5	=5
2C	1c	1g	0c	0ee
2c	.	.	.	.
2A	1r	2a	.	.
[2c	.	[2g	.	.
=6	=6	=6	=6	=6
4c]	0c	2g]	1e	1r
4B-	.	.	.	.
4A	.	2c	.	.
4G	.	.	.	.
1A	.	2r	1f	1a
.	.	2c	.	.
=7	=7	=7	=7	=7
2G	0d	2B-	1g	2b-
2B-	.	4G	.	2.dd
.	.	4A	.	.
2G	.	4B-	1r	.
.	.	4c	.	4cc
[2B-	.	2d	.	4b-
.	.	.	.	4a
=8	=8	=8	=8	=8
4B-]	1d	1G	0g	1.b-
4A	.	.	.	.
4G	.	.	.	.
4F	.	.	.	.
1G	1e	1g	.	.
.	.	.	.	2g
=9	=9	=9	=9	=9
1F	1f	2c	0a	1cc
.	.	2.f	.	.
1r	2d	.	.	2r
.	.	4g	.	.
.	[2f	[2a	.	2cc
=10	=10	=10	=10	=10
0r	4f]	4a]	1a	1ff
.	4e	4g	.	.
.	4d	4f	.	.
.	4c	4e	.	.
.	1d	1f	1b	1ff
=11	=11	=11	=11	=11
1C	1c	1g	1cc	1ee
2.F	1r	[1f	2a	1ff
.	.	.	[2cc	.
4G	.	.	.	.
=12	=12	=12	=12	=12
2.A	0F	1f]	4cc]	2cc
.	.	.	4b	.
.	.	.	4a	1ff
4B	.	.	4g	.
1c	.	2r	1a	.
.	.	2c	.	4ee
.	.	.	.	4dd
=13	=13	=13	=13	=13
2C	0G	1c	1g	2ee
2C	.	.	.	1cc
1G	.	1d	1r	.
.	.	.	.	2b
=14	=14	=14	=14	=14
1C	1G	1e	0c	1cc
1F	1A	1f	.	1r
=15	=15	=15	=15	=15
1BB-	1B-	2d	0d	1f
.	.	2.B-	.	.
1r	2G	.	.	[1g
.	.	4A	.	.
.	[2B-	4G	.	.
.	.	4F	.	.
=16	=16	=16	=16	=16
1r	4B-]	1G	1d	1g]
.	4A	.	.	.
.	4G	.	.	.
.	4F	.	.	.
1C	1G	[1c	1e	1g
=17	=17	=17	=17	=17
1F	2F	1c]	1f	1a
.	2.f	.	.	.
1BB-	.	1B-	2d	1b-
.	4e	.	.	.
.	[2d	.	[2f	.
=18	=18	=18	=18	=18
0r	4d]	0r	4f]	2a
.	4c	.	4e	.
.	4B-	.	4d	2.b-
.	4A	.	4c	.
.	4G	.	1d	.
.	4F	.	.	4a
.	[2f	.	.	4g
.	.	.	.	4f
=19	=19	=19	=19	=19
1C	2f]	1r	2c	1g
.	2e	.	2.cc	.
2.F	1f	1c	.	2f
.	.	.	4b-	.
.	.	.	[2a	[2ff
4G	.	.	.	.
=20	=20	=20	=20	=20
2A	0r	1f	4a]	4ff]
.	.	.	4g	4ee
2.B-	.	.	4f	4dd
.	.	.	4e	4cc
.	.	2f	4d	4b-
4A	.	.	4c	4cc
2F	.	2f	[2cc	2a
=21	=21	=21	=21	=21
1G	0r	1d	2cc]	1g
.	.	.	2b	.
1C	.	2.e	1cc	1g
.	.	4f	.	.
=22	=22	=22	=22	=22
2r	0c	2g	0r	2e
1F	.	1a	.	4f
.	.	.	.	4g
.	.	.	.	4a
.	.	.	.	4b-
2E	.	2g	.	[2cc
=23	=23	=23	=23	=23
2F	1A	2r	0r	4cc]
.	.	.	.	4dd
2C	.	1c	.	2ee
1D	1F	.	.	1ff
.	.	2B	.	.
=24	=24	=24	=24	=24
1C	0G	2c	0g	2ee
.	.	2c	.	1cc
1r	.	1d	.	.
.	.	.	.	2b
=25	=25	=25	=25	=25
0r	2.A	1c	1e	2cc
.	.	.	.	2cc
.	4G	.	.	.
.	4A	1r	1c	1a
.	4B	.	.	.
.	[2c	.	.	.
=26	=26	=26	=26	=26
0G	2c]	1r	0d	0g
.	4B	.	.	.
.	4A	.	.	.
.	1B	[1g	.	.
=27	=27	=27	=27	=27
1C	0c	1g]	2.e	2r
.	.	.	.	1g
.	.	.	4d	.
2.c	.	1e	4e	.
.	.	.	4f#	.
.	.	.	[2g	2g
4B-	.	.	.	.
=28	=28	=28	=28	=28
0A	0r	0c	2g]	2.a
.	.	.	4f#	.
.	.	.	4e	4g
.	.	.	1f#	4a
.	.	.	.	4b
.	.	.	.	[2cc
=29	=29	=29	=29	=29
0G	0r	1.d	0g	2cc]
.	.	.	.	4b
.	.	.	.	4a
.	.	.	.	1b
.	.	2G	.	.
=30	=30	=30	=30	=30
2r	0f	2A	0r	2cc
1B-	.	2B-	.	1dd
.	.	1F	.	.
2A	.	.	.	2cc
=31	=31	=31	=31	=31
2B-	1d	2r	0r	2b-
2F	.	1f	.	2a
1G	1B-	.	.	2.b-
.	.	2e	.	.
.	.	.	.	8a
.	.	.	.	8g
=32	=32	=32	=32	=32
1F	2c	1f	0cc	1a
.	1f	.	.	.
1r	.	1c	.	1g
.	2e	.	.	.
=33	=33	=33	=33	=33
0r	2f	2d	1a	2r
.	2c	2A	.	1cc
.	1d	2r	1f	.
.	.	[2f	.	2b
=34	=34	=34	=34	=34
0r	1c	2f]	2g	1cc
.	.	2e	1cc	.
.	1r	2f	.	2a
.	.	2d	2b	[2ff
=35	=35	=35	=35	=35
1r	0r	2.c	2cc	2ff]
.	.	.	2g	2ee
.	.	4B-	.	.
1F	.	4A	1a	2ff
.	.	4F	.	.
.	.	[2f	.	2cc
=36	=36	=36	=36	=36
2BB-	1r	2f]	1g	2dd
2C	.	2e	.	4cc
.	.	.	.	4b-
2D	2r	[1f	1r	2a
4BB-	[2B-	.	.	[2dd
4C	.	.	.	.
=37	=37	=37	=37	=37
4D	2B-]	1f]	0r	2dd]
4E	.	.	.	.
2F	2A	.	.	2cc
2BB-	2B-	2r	.	2dd
2D	2F	[2f	.	2a
=38	=38	=38	=38	=38
1C	1G	2f]	1r	2.cc
.	.	2e	.	.
.	.	.	.	4b-
1r	1F	1f	2r	1a
.	.	.	[2f	.
=39	=39	=39	=39	=39
1r	0r	0c	2f]	1g
.	.	.	2e	.
[1F	.	.	2f	2a
.	.	.	2c	[2cc
=40	=40	=40	=40	=40
2F]	0r	2r	1d	2cc]
2G	.	1g	.	2b
2E	.	.	1c	1cc
[2F	.	2a	.	.
=41	=41	=41	=41	=41
4F]	1.F	1f	0r	2a
4E	.	.	.	.
4D	.	.	.	2.dd
4C	.	.	.	.
1BB-	.	2d	.	.
.	.	.	.	4cc
.	2G	[2d	.	4b-
.	.	.	.	4a
=42	=42	=42	=42	=42
2C	2E	4d]	0r	2g
.	.	2c	.	.
2D	2F	.	.	1f
.	.	4B	.	.
1C	1G	1c	.	.
.	.	.	.	2e
=43	=43	=43	=43	=43
2r	[0F	2.A	1.c	[0f
2F	.	.	.	.
.	.	4B-	.	.
2F	.	2c	.	.
[2BB-	.	2B-	2d	.
=44	=44	=44	=44	=44
2BB-]	0F]	2d	2B-	0f]
2AA	.	2c	2c	.
1BB-	.	1B-	1d	.
=45	=45	=45	=45	=45
[0F	[0F	[0A	[0c	[0f
=46	=46	=46	=46	=46
0F]	0F]	0A]	0c]	0f]
==	==	==	==	==
*-	*-	*-	*-	*-
!!!CDT: 1525/^1526/-1594/2/2
!!!OCY: Italia
!!!AGN: Mass (Paraphrase)
!!!AST: renaissance, vocal
!!!ASW: Gregorian Mass
!!!PWK: Masses, Book 2
!!!RNB: Cadence finals: G,D,E,F,C
!!!YOR: Le Opere Complete, v. 4, p. 1
!!!YOO: Rome, Italy: Fratelli Scalera
!!!END: 1992//
!!!EED: John Miller
!!!YEC: Copyright 2000, John Miller
!!!YEN: United States of America
!!!YEM: Rights to all derivative electronic formats reserved.
!!!YEM: Refer to licensing agreement for further details.
!!!YEM: This file must be accompanied by the licensing agreement.
!!!YEM: A copy of the licensing agreement may be found at http://www.music-cog.ohio-state.edu/HumdrumDatabases/Palestrina/license.txt
!!!EMD: converted to Humdrum by Bret Aarden
